X:68
T:Polonäs efter Pehr Andersson Bild 24 nr 69
S:efter Pehr Andersson
B:Spelmansbok Ma 1 efter Pehr Andersson daterad 1731
B:FMK - katalog Ma1 bild 24
O:Måstorp, Närke
R:Slängpolska
M:3/4
L:1/16
K:D
DEFG (A2dA) (GFE)D | A2d2 (cd)(ef) dcBA | B2g2 A2f2 G2f2 | efed cdcB ABAG |
F2d2 E2d2 cdef | dcBc d4 D4 :: fefg f2a2 e2d2 | cBcd e2(ae) dcBA |
ABcd efge a2A2 | ^GABG A4 A,4 | DEFG A2d2 c2d2 | DEFG A2d2 c2d2 |
defd efge f2ga | A2Bc d4 D4 :|

